src/img/ic_usdt_24.svg

<svg height="24" viewBox="0 0 40 40.005" width="24" xmlns="http://www.w3.org/2000/svg"><path d="m0 .005h40v40h-40z" fill="none"/><path d="m39.4 24.842a20 20 0 1 1 -14.564-24.242 20 20 0 0 1 14.564 24.242z" fill="#50af95" transform="translate(0 -.001)"/><path d="m78.837 52.348c-.139.01-.858.053-2.46.053-1.275 0-2.18-.038-2.5-.053-4.926-.217-8.6-1.074-8.6-2.1s3.677-1.883 8.6-2.1v3.35c.322.023 1.245.078 2.519.078 1.53 0 2.3-.064 2.434-.076v-3.354c4.916.219 8.585 1.077 8.585 2.1s-3.668 1.882-8.585 2.1zm0-4.549v-3h6.863v-4.569h-18.681v4.57h6.859v3c-5.575.256-9.768 1.361-9.768 2.684s4.193 2.427 9.768 2.684v9.607h4.958v-9.61c5.563-.256 9.748-1.359 9.748-2.682s-4.184-2.427-9.748-2.683z" fill="#fff" transform="translate(-56.347 -29.672)"/></svg>

<svg id="ic_usdt_24" xmlns="http://www.w3.org/2000/svg" width="24" height="24" viewBox="0 0 40 40.005">
  <rect id="Rectangle_179" data-name="Rectangle 179" width="40" height="40" transform="translate(0 0.005)" fill="none"/>
  <path id="Path_1467" data-name="Path 1467" d="M39.4,24.842A20,20,0,1,1,24.836.6,20,20,0,0,1,39.4,24.842h0Z" transform="translate(0 -0.001)" fill="#50af95"/>
  <path id="Path_1483" data-name="Path 1483" d="M78.837,52.348h0c-.139.01-.858.053-2.46.053-1.275,0-2.18-.038-2.5-.053h0c-4.926-.217-8.6-1.074-8.6-2.1s3.677-1.883,8.6-2.1v3.35c.322.023,1.245.078,2.519.078,1.53,0,2.3-.064,2.434-.076V48.146c4.916.219,8.585,1.077,8.585,2.1s-3.668,1.882-8.585,2.1h0Zm0-4.549v-3H85.7V40.23H67.019V44.8h6.859v3c-5.575.256-9.768,1.361-9.768,2.684s4.193,2.427,9.768,2.684v9.607h4.958v-9.61c5.563-.256,9.748-1.359,9.748-2.682S84.4,48.056,78.836,47.8h0Zm0,0Z" transform="translate(-56.347 -29.672)" fill="#fff"/>
</svg>
